public/svgs/outline-heart.svg

<?xml version="1.0" encoding="UTF-8"?>
<svg width="10px" height="9px" viewBox="0 0 10 9" version="1.1" xmlns="http://www.w3.org/2000/svg" xmlns:xlink="http://www.w3.org/1999/xlink">
    <!-- Generator: Sketch 63.1 (92452) - https://sketch.com -->
    <desc>Created with Sketch.</desc>
    <g id="Page-1" stroke="none" stroke-width="1" fill="none" fill-rule="evenodd">
        <g id="Icons" transform="translate(-61.000000, -45.000000)" fill="#0E1C2A" fill-rule="nonzero">
            <g id="favorite1" transform="translate(61.000000, 45.000000)">
                <path d="M9.38,1.89 C9.15705676,1.1861238 8.6594798,0.602011721 8,0.27 L8,0.27 C7.34403542,-0.0526414094 6.58365465,-0.0888500173 5.9,0.17 C5.46157418,0.322308661 5.06921792,0.583879501 4.76,0.93 C4.45331621,0.583255603 4.06490016,0.318582718 3.63,0.16 C2.93979068,-0.0917650714 2.17648837,-0.0491371407 1.51860407,0.277914537 C0.860719766,0.604966215 0.365948209,1.18776007 0.15,1.89 C-0.13351315,2.85630862 0.000677499835,3.89719284 0.52,4.76 C1.19,6.05 2.34,7 4.29,8.64 C4.41923858,8.74667518 4.582458,8.80344715 4.75,8.8 C4.94794242,8.79904081 5.13918728,8.72820938 5.29,8.6 C7.19,7 8.34,6 9,4.76 C9.51802024,3.89701734 9.65558267,2.858059 9.38,1.89 Z M8.13,4.29 C7.56,5.37 6.58,6.22 4.76,7.73 C3,6.23 2,5.38 1.4,4.29 C1.01880126,3.6598456 0.910492441,2.90168387 1.1,2.19 C1.25099026,1.75424762 1.56698107,1.39516715 1.98,1.19 C2.19829969,1.07138165 2.44163368,1.0062641 2.69,1 C2.89522499,0.997598666 3.09897393,1.03495264 3.29,1.11 C3.73186858,1.26013003 4.09546971,1.58053102 4.3,2 L4.43,2.3 L5.09,2.3 L5.22,2 C5.4126737,1.56668123 5.77386181,1.23077629 6.22,1.07 C6.63890738,0.893876334 7.11109262,0.893876334 7.53,1.07 C7.94301893,1.27516715 8.25900974,1.63424762 8.41,2.07 C8.635552,2.81623667 8.53378058,3.62313861 8.13,4.29 Z" id="Shape"></path>
            </g>
        </g>
    </g>
</svg>

<svg height="9" viewBox="0 0 10 9" width="10" xmlns="http://www.w3.org/2000/svg"><path d="m9.38 1.89c-.22294324-.7038762-.7205202-1.28798828-1.38-1.62-.65596458-.32264141-1.41634535-.35885002-2.1-.1-.43842582.15230866-.83078208.4138795-1.14.76-.30668379-.3467444-.69509984-.61141728-1.13-.77-.69020932-.25176507-1.45351163-.20913714-2.11139593.11791454s-1.15265586.90984553-1.36860407 1.61208546c-.28351315.96630862-.1493225 2.00719284.37 2.87.67 1.29 1.82 2.24 3.77 3.88.12923858.10667518.292458.16344715.46.16.19794242-.00095919.38918728-.07179062.54-.2 1.9-1.6 3.05-2.6 3.71-3.84.51802024-.86298266.65558267-1.901941.38-2.87zm-1.25 2.4c-.57 1.08-1.55 1.93-3.37 3.44-1.76-1.5-2.76-2.35-3.36-3.44-.38119874-.6301544-.48950756-1.38831613-.3-2.1.15099026-.43575238.46698107-.79483285.88-1 .21829969-.11861835.46163368-.1837359.71-.19.20522499-.00240133.40897393.03495264.6.11.44186858.15013003.80546971.47053102 1.01.89l.13.3h.66l.13-.3c.1926737-.43331877.55386181-.76922371 1-.93.41890738-.17612367.89109262-.17612367 1.31 0 .41301893.20516715.72900974.56424762.88 1 .225552.74623667.12378058 1.55313861-.28 2.22z" fill="#0e1c2a"/></svg>
